X:1
T:Noyt en wasser blijden nacht
A:Flanders
B:Beyaert 1728, n\u00b0 5, p. 5
D:'t Kliekske - 't Is Met Dees Koude Winterse Dagen (2000)
Z:2018-12-11 Bert Van Vreckem (bert.vanvreckem@gmail.com)
M:C
L:1/4
Q:1/4=120
K:C
"C"c/d/ e/d/ c G | "C"c "G7"d "C"e2 | e/d/ c/d/ e/f/ g | "F"f3/2 g/ "C"e c | \
g/f/ g/a/ "F"g/f/ e/f/ | "G7"d3/2 c/ "C"c2 :|
M:3/2
Q:1/2=160
|: "C"e2 e2 e2 | e4 c2 | g2 g2 g2 | g4 e2 | "G"d2 d2 d2 | e3 f g2 | f2 e3 d | d6 |
d2 d2 d2 | d4 e2 | "C"c2 c2 "G7"f2 | "C"e4 d2 | g2 g2 g2 | "F"a3 g f2 | "G7"ef d3 c | "C"c6 :| 

